X: 9279
T: Dance Of Life
R: polka
M: 2/4
K: Gmajor
G2 Bd|zg fg|a2 ge|ed d2|
a>b c'a|bg a>g|1 fd ed|cA A2:|2 fd ef|ag g2||
a>b c'a|bg a>g|fd ed|cA A2|
a>b c'a|bg a>g|fd ef|ag g2:|
G2 Bd|zg fg|e>d ^cd|ed d2|
e/f/e/d cA|d/e/d/c/ BG|1 cA FA|GF ED:|2 cA DF|AG G2||
A2 d>f|af fa|ge Ac|ed de/f/|
gd B/c/B/A/|GB D>B|cA FA|GF ED|
A2 d>f|af fa|ba gc|ed dB|
c>B cA|FG AB|cA DF|AG B/c/B/A/||

